X:1
T:Roscommon Hunt
L:1/8
M:4/4
I:linebreak $
K:C
V:1 treble 
V:1
 E |: (3AAA AG A2 g2 | egdg BGdB | (3AAA AG A2 g2 |1 egde B2 AE :|2 egde B2 AA ||$ a2 ag g2 gd | %7
 egdg BGdB | Aa a2 eg g2 | edBd e2 eg | abab abab | egdg BGdB |$ (3AAA AG A2 g2 | egde B2 A || %14
